packages/foundations/assets/icons/functional/images/navigation/log_in_24.svg

<svg xmlns="http://www.w3.org/2000/svg" width="24" height="24" fill="none"><g clip-path="url(#a)"><path fill="#1A1C1F" fill-rule="evenodd" d="M20.5 6c0-1.656-1.305-3-2.914-3H13.7c-.546 0-.971.437-.971 1s.425 1 .971 1h3.886c.546 0 .971.438.971 1v12c0 .563-.425 1-.971 1H13.7c-.546 0-.971.438-.971 1s.425 1 .971 1h3.886c1.609 0 2.914-1.344 2.914-3zm-17 6c0 .531.425 1 .971 1h7.377l-2.216 2.281a1.06 1.06 0 0 0-.273.719c0 .563.425 1 .941 1 .243 0 .516-.125.698-.312l3.886-3.969c.182-.188.273-.469.273-.719s-.091-.531-.273-.719l-3.886-3.969A.9.9 0 0 0 10.33 7a.91.91 0 0 0-.698.312.99.99 0 0 0-.273.688c0 .25.091.5.273.719L11.848 11H4.471c-.546 0-.971.437-.971 1" clip-rule="evenodd"/></g><defs><clipPath id="a"><path fill="#fff" d="M0 0h24v24H0z"/></clipPath></defs></svg>

<svg width="24" height="24" viewBox="0 0 24 24" fill="none" xmlns="http://www.w3.org/2000/svg">
<g clip-path="url(#clip0_187_46)">
<path fill-rule="evenodd" clip-rule="evenodd" d="M20.5 6C20.5 4.344 19.195 3 17.586 3H13.7C13.154 3 12.729 3.437 12.729 4C12.729 4.563 13.154 5 13.7 5H17.586C18.132 5 18.557 5.438 18.557 6V18C18.557 18.563 18.132 19 17.586 19H13.7C13.154 19 12.729 19.438 12.729 20C12.729 20.563 13.154 21 13.7 21H17.586C19.195 21 20.5 19.656 20.5 18V6ZM3.5 12C3.5 12.531 3.925 13 4.471 13H11.848L9.632 15.281C9.45 15.469 9.359 15.75 9.359 16C9.359 16.563 9.784 17 10.3 17C10.543 17 10.816 16.875 10.998 16.688L14.884 12.719C15.066 12.531 15.157 12.25 15.157 12C15.157 11.75 15.066 11.469 14.884 11.281L10.998 7.312C10.816 7.094 10.543 7 10.33 7C10.087 7 9.814 7.094 9.632 7.312C9.45 7.5 9.359 7.75 9.359 8C9.359 8.25 9.45 8.5 9.632 8.719L11.848 11H4.471C3.925 11 3.5 11.437 3.5 12Z" fill="#1A1C1F"/>
</g>
<defs>
<clipPath id="clip0_187_46">
<rect width="24" height="24" fill="white"/>
</clipPath>
</defs>
</svg>
